other/btpay.svg

<?xml version="1.0" encoding="UTF-8"?><svg id="a" xmlns="http://www.w3.org/2000/svg" viewBox="0 0 48 48"><defs><style>.b{fill:none;stroke:#fff;stroke-linecap:round;stroke-linejoin:round;}</style></defs><path class="b" d="m8.6297,7.21l.002-.004c4.693-1.738,9.8961-2.706,15.3683-2.706,6.0806,0,11.8219,1.1888,16.9065,3.3034-.3223,1.0121-.5914,2.0453-.8012,3.0835-.9207,4.5685-.5864,8.9964.9519,14.2648-2.3405,6.2574-6.6449,11.854-11.8319,15.4918-9.4543-3.4761-16.3101-8.8248-19.8123-16.3312,1.7471-7.0666,1.0764-11.4946-.7832-17.1023Zm15.3663,30.5307c4.1056-2.0192,9.5427-6.6801,12.7567-14.1122-1.3555-5.195-1.6035-9.6702-.7701-14.2367-3.7381-1.1225-7.7765-1.739-11.9876-1.739-4.0574-.005-8.0928.5763-11.9785,1.738.8344,4.5635.5864,9.0456-.7691,14.2437,3.206,7.4281,8.644,12.088,12.7486,14.1061Zm5.2292,2.9028c-9.4543-3.4761-16.3101-8.8248-19.8123-16.3312,1.7481-7.0706,1.0754-11.4996-.7862-17.1113-.5221.1938-1.0332.3926-1.5392.6024,1.8133,5.7252,1.738,10.9182-.1446,17.3533,3.0885,8.2595,9.6099,15.3783,17.0571,18.3433,1.8455-.748,3.5996-1.7059,5.2252-2.8566m-13.7607-17.4397v-8.0325h2.6106c1.5061,0,2.711,1.2049,2.711,2.711s-1.2049,2.711-2.711,2.711h-2.6106m11.0488.5994c0,1.1045-.9037,2.0081-2.0081,2.0081s-2.0081-.9037-2.0081-2.0081v-1.3053c0-1.1045.9037-2.0081,2.0081-2.0081s2.0081.9037,2.0081,2.0081m0,3.3134v-5.422m6.0224,3.5444v2.711c0,1.1045-.9037,2.0081-2.0081,2.0081-.6024,0-1.1045-.2008-1.4057-.6024m3.4138-7.5305v3.3134c0,1.1045-.9037,2.0081-2.0081,2.0081s-2.0081-.9037-2.0081-2.0081v-3.3134"/></svg>

<?xml version="1.0" encoding="UTF-8" standalone="no"?>
<!DOCTYPE svg PUBLIC "-//W3C//DTD SVG 1.1//EN" "http://www.w3.org/Graphics/SVG/1.1/DTD/svg11.dtd">
<svg width="100%" height="100%" viewBox="0 0 48 48" version="1.1" xmlns="http://www.w3.org/2000/svg" xmlns:xlink="http://www.w3.org/1999/xlink" xml:space="preserve" xmlns:serif="http://www.serif.com/" style="clip-rule:evenodd;stroke-linejoin:round;stroke-miterlimit:2;">
    <path d="M8.692,7.278L8.694,7.274C13.368,5.543 18.55,4.579 24,4.579C30.056,4.579 35.774,5.763 40.838,7.869C40.517,8.877 40.249,9.906 40.04,10.94C39.123,15.49 39.456,19.9 40.988,25.147C38.657,31.379 34.37,36.953 29.204,40.576C19.788,37.114 12.96,31.787 9.472,24.311C11.212,17.273 10.544,12.863 8.692,7.278ZM23.996,37.685C28.085,35.674 33.5,31.032 36.701,23.63C35.351,18.456 35.104,13.999 35.934,9.451C32.211,8.333 28.189,7.719 23.995,7.719C19.954,7.714 15.935,8.293 12.065,9.45C12.896,13.995 12.649,18.459 11.299,23.636C14.492,31.034 19.908,35.675 23.996,37.685ZM29.204,40.576C19.788,37.114 12.96,31.787 9.472,24.311C11.213,17.269 10.543,12.858 8.689,7.269C8.169,7.462 7.66,7.66 7.156,7.869C8.962,13.571 8.887,18.743 7.012,25.152C10.088,33.378 16.583,40.468 24,43.421C25.838,42.676 27.585,41.722 29.204,40.576M15.499,23.207L15.499,15.207L18.099,15.207C19.599,15.207 20.799,16.407 20.799,17.907C20.799,19.407 19.599,20.607 18.099,20.607L15.499,20.607M26.503,21.204C26.503,22.304 25.603,23.204 24.503,23.204C23.403,23.204 22.503,22.304 22.503,21.204L22.503,19.904C22.503,18.804 23.403,17.904 24.503,17.904C25.603,17.904 26.503,18.804 26.503,19.904M26.503,23.204L26.503,17.804M32.501,21.334L32.501,24.034C32.501,25.134 31.601,26.034 30.501,26.034C29.901,26.034 29.401,25.834 29.101,25.434M32.501,17.934L32.501,21.234C32.501,22.334 31.601,23.234 30.501,23.234C29.401,23.234 28.501,22.334 28.501,21.234L28.501,17.934" style="fill:none;fill-rule:nonzero;stroke:white;stroke-width:1px;"/>
</svg>
